X:1
T:Banias, LMD
T:Banias, LMD
T:Meyer Lutz (1829-1903)
T:Public Domain Courtesy of the Cyber Hymnal™
C:Meyer Lutz (1829-1903)
Z:Public Domain
Z:Courtesy of the Cyber Hymnal™
%%score ( 1 2 ) ( 3 4 )
L:1/8
Q:1/4=108
M:4/4
K:Eb
V:1 treble 
V:2 treble 
V:3 bass 
V:4 bass 
V:1
 [GB]2 | [GB]2 [Ae]2 [GB]2 [EG]2 | [DG]3 [DF] [CE]2 [CE]2 | [CF]2 [CG]2 [CA]2 c2 | %4
 D2 [DF]2 E2 [B,E]2 | [B,F]2 [DB]2 [E=A]2 [DB]2 | [Ec]2 [EF]2 [DB]2 [Fd]2 | %7
 [Ee]3 [Fd] [Gc]2 [CG]2 | [Fd]2 [Ec]2 [DB]2 [FA]2 x | [EG]2 [DF]2 E2 [_DE]2 | B3 z A [EG]2 [Gc]2 | %11
 [Ac]2 [FA]2 [EG]2 [EF]2 | [EF]3 [EG] [DF]2 (cB) | [GB]2 [Ee]2 [EB]2 [EG]2 | %14
 [DG]3 [DF] [CE]2 [C=E]2 | [CF]2 [CG]2 [CA]2 c2 | D2 [DF]2 E2 |] %17
V:2
 x2 | x8 | x8 | x6 (FE) | D2 E2 x4 | x8 | x8 | x8 | x9 | x4 E2 x2 | C2 E2 x5 | x8 | x6 F2 | x8 | %14
 x8 | x6 (FE) | D2 E2 x2 |] %17
V:3
 [E,B,]2 | [E,B,]2 [E,C]2 [E,B,]2 [E,B,]2 | [B,,B,]3 [B,,A,] [C,G,]2 [C,C]2 | %3
 [A,C]2 [G,B,]2 [F,A,]2 (A,G,) | [B,,F,]2 [B,,A,]2 [E,G,]2 [E,G,]2 | %5
 [D,F,]2 [B,,F,]2 [C,F,]2 [B,,F,]2 | [=A,,F,]2 [A,,F,]2 [B,,F,]2 [=B,,=A,]2 | %7
 [C,G,]3 [D,G,] [E,G,]2 [=E,B,]2 | B,3 z =A, [B,,B,]2 [D,B,]2 | [E,B,]2 [B,,A,]2 [C,G,]2 [B,,E,]2 | %10
 E,2 z [E,B,]2 [=E,C]2 x2 | [F,C]2 [F,C]2 [G,C]2 [A,C]2 | [=A,C]3 [A,C] [B,D]2 [_A,D]2 | %13
 [G,E]2 [A,C]2 [G,B,]2 [E,B,]2 | [B,,B,]3 [=B,,A,] [C,G,]2 [C,C]2 | [A,C]2 [G,B,]2 [F,A,]2 (A,G,) | %16
 [B,,F,]2 [B,,A,]2 [E,G,]2 |] %17
V:4
 x2 | x8 | x8 | x6 A,,2 | x8 | x8 | x8 | x8 | F,2 F,2 x5 | x8 | A,,3 (C2 A,,) x3 | x8 | x8 | x8 | %14
 x8 | x6 A,,2 | x6 |] %17

